X:106
T:Sheridan's Hornpipe
R:hornpipe
Z:id:hn-hornpipe-106
M:C|
L:1/8
K:G
B,D|GFGA Bdgf|agfc ed^cd|BGDG cAFG|ABcB AG (3FED|
G,B,D=F ECEG|(3FED FA GBAc|Bgfg cAFD|(3GGG (3AGF G2:|
|:fg|afdg bgfa|gfge dcBd|ceAc BcdG|FAcB AG (3FED|
G,B,D=F ECEG|(3FED FA GBAc|Bgfg cAFD|(3GGG (3AGF G2:|

